assets/fonticons/no-vegan.svg

<?xml version="1.0" encoding="UTF-8"?>
<svg xmlns="http://www.w3.org/2000/svg" xmlns:xlink="http://www.w3.org/1999/xlink" width="24" height="24" viewBox="0 0 24 24">
<path fill="none" stroke-width="0.841986" stroke-linecap="round" stroke-linejoin="round" stroke="rgb(0%, 0%, 0%)" stroke-opacity="1" stroke-miterlimit="4" d="M 12.899236 6.282424 C 12.899236 9.218582 10.395436 11.600007 7.306308 11.600007 C 4.217179 11.600007 1.71338 9.218582 1.71338 6.282424 C 1.71338 3.346267 4.217179 0.966709 7.306308 0.966709 C 10.395436 0.966709 12.899236 3.346267 12.899236 6.282424 Z M 12.899236 6.282424 " transform="matrix(1.995405, 0, 0, 2.091381, -2.579043, -1.138945)"/>
<path fill-rule="nonzero" fill="rgb(0%, 0%, 0%)" fill-opacity="1" stroke-width="0.768417" stroke-linecap="butt" stroke-linejoin="miter" stroke="rgb(0%, 0%, 0%)" stroke-opacity="1" stroke-miterlimit="4" d="M 1.451315 7.849967 L 5.559765 7.061438 " transform="matrix(2.069858, 0, 0, 2.090524, -2.703234, -1.43789)"/>
<path fill-rule="nonzero" fill="rgb(0%, 0%, 0%)" fill-opacity="1" stroke-width="0.734087" stroke-linecap="butt" stroke-linejoin="miter" stroke="rgb(0%, 0%, 0%)" stroke-opacity="1" stroke-miterlimit="4" d="M 9.030339 6.467239 L 12.359372 5.852486 " transform="matrix(2.069858, 0, 0, 2.090524, -2.703234, -1.43789)"/>
<path fill-rule="nonzero" fill="rgb(0%, 0%, 0%)" fill-opacity="1" stroke-width="4.86409" stroke-linecap="butt" stroke-linejoin="miter" stroke="rgb(0%, 0%, 0%)" stroke-opacity="1" stroke-miterlimit="4" d="M 345.892219 122.802882 C 345.590941 121.454964 344.506339 120.444026 343.180714 120.107047 C 337.034637 118.646803 330.647538 118.253661 324.079671 118.983783 C 308.714478 120.724842 293.530053 128.138387 281.478921 139.8765 C 269.367534 151.614613 261.715066 166.329377 259.967652 181.324957 C 259.30484 186.941279 259.485607 192.445274 260.630464 197.78078 C 260.570208 197.836943 260.509953 197.893106 260.449697 197.94927 C 243.879391 217.044764 232.671839 237.825156 225.200138 258.380894 C 218.752782 234.174546 209.172133 211.933911 196.5787 192.108295 C 177.899447 162.566441 152.351048 138.023114 120.716828 119.152272 C 119.02967 118.197498 116.920722 118.59064 115.715609 120.107047 C 114.570751 121.567291 114.751518 123.757656 116.197654 124.993247 C 154.640763 159.140485 181.695553 198.847881 196.699212 242.992172 C 202.9658 261.582198 211.341336 291.9665 211.341336 340.716174 C 211.341336 342.73805 213.028495 344.366784 215.137443 344.366784 L 231.225703 344.366784 C 233.274396 344.366784 234.961554 342.73805 234.961554 340.716174 C 234.961554 338.076503 234.961554 335.324505 234.961554 332.572508 C 234.720531 296.178741 234.479509 250.068738 267.017564 203.172449 C 270.090602 203.677918 273.223896 203.958734 276.417446 203.958734 C 278.526394 203.958734 280.695598 203.846408 282.864802 203.565592 C 298.29025 201.880695 313.474675 194.46715 325.525807 182.729037 C 337.637194 170.934761 345.289662 156.219997 347.037076 141.280581 C 347.8204 134.934137 347.39861 128.70002 345.892219 122.802882 Z M 203.809379 240.68948 C 193.023617 208.732608 176.031521 179.078428 153.134372 152.063919 C 167.535474 165.037623 179.948139 179.696223 190.191601 195.927394 C 204.411936 218.336518 214.655398 243.946947 220.741219 272.028557 C 218.813038 278.71198 217.186135 285.507729 215.860511 292.359642 C 213.691307 276.465451 210.015712 258.942526 203.809379 240.68948 Z M 227.429597 332.628671 C 227.429597 334.088914 227.429597 335.605321 227.429597 337.065565 L 218.933549 337.065565 C 219.234828 313.027707 222.970678 282.980384 235.262832 253.101552 C 227.128319 282.306426 227.309086 309.93873 227.429597 332.628671 Z M 339.565375 140.438133 C 336.311569 168.070437 310.461893 193.119233 282.021222 196.320536 C 278.58665 196.713679 275.212333 196.713679 271.958528 196.432863 C 284.13017 180.426345 300.338942 164.363664 321.850212 148.637963 C 323.477114 147.402372 323.838648 145.09968 322.57328 143.470946 C 321.307911 141.898376 318.95794 141.561397 317.270782 142.796988 C 297.024881 157.624078 280.39432 173.405943 267.198331 190.311072 C 267.017564 187.615237 267.077819 184.863239 267.439353 182.167405 C 270.693159 154.535101 296.542836 129.430142 324.983506 126.285001 C 329.803958 125.723369 334.564155 125.891859 339.08333 126.734307 C 339.987165 131.115038 340.107676 135.720422 339.565375 140.438133 Z M 339.565375 140.438133 " transform="matrix(-0.0648279, 0, 0, 0.0695517, 26.833636, -3.068499)"/>
</svg>

<?xml version="1.0" encoding="UTF-8" standalone="no"?>
<svg
   xml:space="preserve"
   width="662.561"
   height="656.011"
   aria-hidden="true"
   viewBox="0 0 11.595 11.48"
   version="1.1"
   id="svg3"
   sodipodi:docname="no-vegan.svg"
   inkscape:export-filename="no-vegan.svg"
   inkscape:export-xdpi="96"
   inkscape:export-ydpi="96"
   inkscape:version="1.3 (0e150ed6c4, 2023-07-21)"
   xmlns:inkscape="http://www.inkscape.org/namespaces/inkscape"
   xmlns:sodipodi="http://sodipodi.sourceforge.net/DTD/sodipodi-0.dtd"
   xmlns="http://www.w3.org/2000/svg"
   xmlns:svg="http://www.w3.org/2000/svg"><defs
     id="defs3" /><sodipodi:namedview
     id="namedview3"
     pagecolor="#ffffff"
     bordercolor="#000000"
     borderopacity="0.25"
     inkscape:showpageshadow="2"
     inkscape:pageopacity="0.0"
     inkscape:pagecheckerboard="0"
     inkscape:deskcolor="#d1d1d1"
     inkscape:zoom="1.2210161"
     inkscape:cx="331.28145"
     inkscape:cy="328.00549"
     inkscape:window-width="1870"
     inkscape:window-height="1044"
     inkscape:window-x="50"
     inkscape:window-y="1050"
     inkscape:window-maximized="1"
     inkscape:current-layer="g3" /><g
     transform="translate(-1.306 -.688)"
     id="g3"><ellipse
       cx="7.307"
       cy="6.283"
       rx="5.593"
       ry="5.317"
       style="opacity:1;fill:none;fill-opacity:1;fill-rule:evenodd;stroke:#000;stroke-width:.841986;stroke-linecap:round;stroke-linejoin:round;stroke-dasharray:none;stroke-opacity:1"
       transform="matrix(.96403 0 0 1.00041 .06 .143)"
       id="ellipse1" /><path
       stroke="#000000"
       stroke-width=".449"
       d="M 1.4520314,7.8497529 5.5595608,7.0611353"
       style="stroke-width:0.768417;stroke-dasharray:none"
       id="path1" /><path
       stroke="#000000"
       stroke-width=".449"
       d="M 9.0306656,6.4676591 12.359874,5.8520843"
       style="stroke-width:0.734087;stroke-dasharray:none"
       id="path1-2" /><g
       style="fill:#000;stroke:#000;stroke-width:4.86409;stroke-dasharray:none;stroke-opacity:1"
       id="g2"><path
         d="M345.92 122.776c-.335-1.32-1.396-2.35-2.755-2.676-6.109-1.461-12.52-1.832-19.057-1.1-15.415 1.727-30.563 9.145-42.656 20.887-12.092 11.742-19.73 26.453-21.508 41.422-.669 5.628-.44 11.16.668 16.476-.052.054-.11.1-.16.158-16.575 19.122-27.797 39.892-35.276 60.45-6.42-24.196-15.997-46.456-28.57-66.304-18.717-29.548-44.253-54.08-75.9-72.916-1.656-.984-3.81-.587-4.977.918a3.58 3.58 0 0 0 .466 4.897c38.44 34.165 65.52 73.871 80.489 118.016 6.304 18.591 14.685 48.947 14.685 97.705 0 2.02 1.686 3.657 3.765 3.657H231.2c2.08 0 3.766-1.637 3.766-3.657 0-2.65-.015-5.364-.03-8.136-.197-36.42-.445-82.531 32.106-129.423 3.065.534 6.194.803 9.37.803 2.14 0 4.301-.121 6.475-.365 15.415-1.726 30.564-9.144 42.656-20.887 12.092-11.742 19.731-26.453 21.509-41.422.755-6.346.374-12.572-1.132-18.503zM203.837 240.717c-10.836-31.96-27.833-61.637-50.715-88.633 14.404 12.974 26.8 27.625 37.069 43.836 14.191 22.405 24.463 48.01 30.54 76.106a227.612 227.612 0 0 0-4.866 20.317c-2.173-15.903-5.846-33.395-12.028-51.626zm23.568 91.895c.01 1.497.016 2.978.022 4.44h-8.502c.332-24.02 4.031-54.056 16.35-83.96-8.141 29.209-7.992 56.86-7.87 79.52zm112.166-192.17c-3.28 27.627-29.096 52.695-57.546 55.881-3.42.384-6.793.412-10.087.1 12.198-16.013 28.393-32.068 49.893-47.81 1.661-1.216 1.992-3.51.74-5.122s-3.613-1.934-5.274-.718c-20.289 14.855-36.92 30.626-50.106 47.552a45.352 45.352 0 0 1 .235-8.179c3.28-27.627 29.096-52.695 57.546-55.881 4.835-.541 9.578-.388 14.13.456.868 4.42 1.027 9.025.47 13.72z"
         style="stroke:#000;stroke-width:4.86409;stroke-dasharray:none;stroke-opacity:1"
         transform="matrix(-.03132 0 0 .03327 14.27 -.78)"
         id="path2" /></g></g></svg>
